packages/foundations/assets/icons/functional/images/environment/leaf_20.svg

<svg width="20" height="20" viewBox="0 0 20 20" fill="none" xmlns="http://www.w3.org/2000/svg">
<g clip-path="url(#clip0_185_817)">
<path fill-rule="evenodd" clip-rule="evenodd" d="M17.0911 4.84901C17.6711 4.94931 18.1101 5.52555 17.9569 6.09385C16.6887 10.7991 14.6532 13.6556 12.1132 14.779C10.2492 15.6035 8.21322 15.3726 6.91366 14.4499C5.49592 14.9385 4.07653 14.9425 2.65549 14.4617C1.43544 14.0168 2.1154 12.1264 3.32725 12.5779C5.20012 13.2757 7.97873 12.4127 10.805 9.35708C11.9225 8.33886 13.0926 9.74269 12.3437 10.6347C11.3636 11.7167 10.3526 12.5956 9.31068 13.2715C9.92637 13.3484 10.6305 13.2638 11.3042 12.95C13.2158 12.0593 14.6775 9.98074 15.6894 6.71442C12.0703 6.61554 9.57091 7.65552 8.19111 9.83436C7.30546 11.3231 5.68416 10.2076 6.36494 9.016C7.46582 7.17514 9.11521 5.96215 11.1842 5.27984C12.8893 4.71751 14.8112 4.57442 17.0911 4.84901Z" fill="#1A1C1F"/>
</g>
<defs>
<clipPath id="clip0_185_817">
<rect width="20" height="20" fill="white"/>
</clipPath>
</defs>
</svg>

<svg xmlns="http://www.w3.org/2000/svg" width="20" height="20" fill="none"><g clip-path="url(#a)"><path fill="#1A1C1F" fill-rule="evenodd" d="M17.091 4.849c.58.1 1.02.677.866 1.245-1.268 4.705-3.304 7.562-5.844 8.685-1.864.825-3.9.594-5.2-.33a6.42 6.42 0 0 1-4.258.013c-1.22-.445-.54-2.336.672-1.884 1.873.698 4.652-.165 7.478-3.22 1.117-1.02 2.288.385 1.539 1.277q-1.47 1.622-3.033 2.637a3.67 3.67 0 0 0 1.993-.322q2.868-1.336 4.385-6.236-5.428-.147-7.498 3.12c-.886 1.49-2.507.374-1.826-.818 1.1-1.84 2.75-3.054 4.82-3.736 1.704-.562 3.626-.706 5.906-.431" clip-rule="evenodd"/></g><defs><clipPath id="a"><path fill="#fff" d="M0 0h20v20H0z"/></clipPath></defs></svg>
